tools/download-figma-icons/icons/outlined-large/energy-plug.svg

<svg width="64" height="65" viewBox="0 0 64 65" fill="none" xmlns="http://www.w3.org/2000/svg">
<path fill-rule="evenodd" clip-rule="evenodd" d="M27.8252 9.54765C26.8652 9.54765 25.9652 9.91865 25.2872 10.5966L18.8502 17.0266C12.2952 23.5786 10.9122 33.9636 15.5622 41.7175L16.1662 42.7245L4.15824 54.7215C2.77924 56.0995 2.60725 58.2785 3.76524 59.6835C4.42524 60.4775 5.35124 60.9435 6.37323 60.9905C7.40223 61.0365 8.35722 60.6665 9.08122 59.9435L21.2392 47.7965L22.2492 48.4085C30.0881 53.1715 40.1021 51.9625 46.5961 45.4725L53.393 38.6805C54.071 38.0025 54.444 37.1035 54.444 36.1445C54.444 35.1865 54.071 34.2866 53.393 33.6096L50.1771 30.3956L59.941 20.6376C60.619 19.9596 60.991 19.0616 60.991 18.1026C60.991 17.1446 60.619 16.2446 59.941 15.5676C58.585 14.2126 56.221 14.2126 54.867 15.5676L45.1011 25.3246L38.6531 18.8806L48.4191 9.12365C49.0961 8.44565 49.4691 7.54665 49.4691 6.58766C49.4691 5.62966 49.0961 4.73067 48.4191 4.05267C47.0211 2.65567 44.7431 2.65467 43.3441 4.05267L33.5791 13.8116L30.3611 10.5966C29.6831 9.91865 28.7841 9.54765 27.8252 9.54765ZM6.54023 64.0014C6.43823 64.0014 6.33523 63.9994 6.23223 63.9944C4.38124 63.9064 2.63725 63.0334 1.44625 61.5974C-0.689742 59.0095 -0.430743 55.0565 2.03125 52.5965L12.4012 42.2335C7.76123 33.4436 9.49122 22.1286 16.7232 14.9016L23.1602 8.47065C24.4052 7.22666 26.0622 6.54066 27.8252 6.54066C29.5871 6.54066 31.2441 7.22666 32.4881 8.47065L33.5791 9.56065L41.2171 1.92768C43.7891 -0.644314 47.9741 -0.640314 50.5461 1.92768C51.7921 3.17167 52.4771 4.82666 52.4771 6.58766C52.4771 8.34965 51.7921 10.0056 50.5461 11.2486L42.9081 18.8806L45.1011 21.0736L52.7401 13.4426C53.9851 12.1966 55.642 11.5116 57.405 11.5116C59.167 11.5116 60.824 12.1966 62.068 13.4426C63.314 14.6856 64 16.3416 64 18.1026C64 19.8626 63.314 21.5196 62.068 22.7626L54.43 30.3956L55.52 31.4846C56.766 32.7286 57.453 34.3846 57.453 36.1445C57.453 37.9055 56.766 39.5625 55.52 40.8055L48.7241 47.5975C41.5261 54.7885 30.5791 56.3475 21.7182 51.5695L11.2092 62.0684C9.97122 63.3064 8.28322 64.0014 6.54023 64.0014Z" fill="black"/>
</svg>

<svg width="64" height="65" viewBox="0 0 64 65" fill="none" xmlns="http://www.w3.org/2000/svg"><path fill-rule="evenodd" clip-rule="evenodd" d="M27.825 9.548c-.96 0-1.86.37-2.538 1.049l-6.437 6.43c-6.555 6.552-7.938 16.937-3.288 24.69l.604 1.008L4.158 54.72c-1.379 1.379-1.55 3.558-.393 4.963a3.573 3.573 0 0 0 2.608 1.306 3.552 3.552 0 0 0 2.708-1.047L21.24 47.797l1.01.611a19.813 19.813 0 0 0 24.347-2.936l6.797-6.791a3.56 3.56 0 0 0 1.051-2.536c0-.959-.373-1.858-1.051-2.535l-3.216-3.214 9.764-9.758a3.557 3.557 0 0 0 1.05-2.535c0-.958-.372-1.858-1.05-2.535-1.356-1.355-3.72-1.355-5.074 0l-9.766 9.757-6.448-6.444 9.766-9.757a3.563 3.563 0 0 0 1.05-2.536c0-.958-.373-1.857-1.05-2.535a3.596 3.596 0 0 0-5.075 0l-9.765 9.759-3.218-3.215a3.558 3.558 0 0 0-2.536-1.05ZM6.54 64a6.645 6.645 0 0 1-5.094-2.404c-2.136-2.587-1.877-6.54.585-9l10.37-10.364c-4.64-8.79-2.91-20.104 4.322-27.331L23.16 8.47a6.557 6.557 0 0 1 4.665-1.93c1.762 0 3.42.686 4.663 1.93l1.091 1.09 7.638-7.633c2.572-2.572 6.757-2.568 9.33 0a6.54 6.54 0 0 1 1.93 4.66 6.539 6.539 0 0 1-1.93 4.66l-7.639 7.633 2.193 2.193 7.64-7.631a6.55 6.55 0 0 1 4.664-1.931c1.762 0 3.419.685 4.663 1.93A6.54 6.54 0 0 1 64 18.103a6.54 6.54 0 0 1-1.932 4.66l-7.638 7.634 1.09 1.089a6.544 6.544 0 0 1 1.933 4.66 6.543 6.543 0 0 1-1.933 4.66l-6.796 6.792a22.82 22.82 0 0 1-27.006 3.972L11.21 62.07A6.617 6.617 0 0 1 6.54 64Z" fill="currentColor"/></svg>
